www/assets/icons/keep.svg

<svg xmlns="http://www.w3.org/2000/svg" width="24" height="24" viewBox="0 0 24 24" fill='currentColor'><mask id="a" width="24" height="24" x="0" y="0" maskUnits="userSpaceOnUse" style="mask-type:alpha"><path d="M0 0h24v24H0z"/></mask><g mask="url(#a)"><path d="m16 12 2 2v2h-5v6l-1 1-1-1v-6H6v-2l2-2V5H7V3h10v2h-1z"/></g></svg>

<svg width="24" height="24" viewBox="0 0 24 24" xmlns="http://www.w3.org/2000/svg" fill='currentColor'><mask id="mask0_32484_495" style="mask-type:alpha" maskUnits="userSpaceOnUse" x="0" y="0" width="24" height="24"><rect width="24" height="24"/></mask><g mask="url(#mask0_32484_495)"><path d="M16 12L18 14V16H13V22L12 23L11 22V16H6V14L8 12V5H7V3H17V5H16V12Z"/></g></svg>
